archdroid-icon-theme/Archdroid-LightBlue/apps/scalable/applets-screenshooter.svg

<?xml version="1.0" encoding="UTF-8" standalone="no"?>
<svg
   xmlns:dc="http://purl.org/dc/elements/1.1/"
   xmlns:cc="http://creativecommons.org/ns#"
   xmlns:rdf="http://www.w3.org/1999/02/22-rdf-syntax-ns#"
   xmlns:svg="http://www.w3.org/2000/svg"
   xmlns="http://www.w3.org/2000/svg"
   xmlns:sodipodi="http://sodipodi.sourceforge.net/DTD/sodipodi-0.dtd"
   xmlns:inkscape="http://www.inkscape.org/namespaces/inkscape"
   width="48"
   height="48"
   viewBox="0 0 48 48"
   id="svg2"
   version="1.1"
   inkscape:version="0.91 r13725"
   sodipodi:docname="applets-screenshooter-symbolic.svg"
   style="fill:#03A9F4">
  <metadata
     id="metadata12">
    <rdf:RDF>
      <cc:Work
         rdf:about="">
        <dc:format>image/svg+xml</dc:format>
        <dc:type
           rdf:resource="http://purl.org/dc/dcmitype/StillImage" />
        <dc:title></dc:title>
      </cc:Work>
    </rdf:RDF>
  </metadata>
  <defs
     id="defs10" />
  <sodipodi:namedview
     pagecolor="#ffffff"
     bordercolor="#666666"
     borderopacity="1"
     objecttolerance="10"
     gridtolerance="10"
     guidetolerance="10"
     inkscape:pageopacity="0"
     inkscape:pageshadow="2"
     inkscape:window-width="1366"
     inkscape:window-height="713"
     id="namedview8"
     showgrid="false"
     inkscape:snap-page="true"
     inkscape:snap-bbox="true"
     inkscape:bbox-nodes="true"
     inkscape:zoom="2.536256923081074"
     inkscape:cx="-173.5516628469288"
     inkscape:cy="-10.34429803807048"
     inkscape:window-x="0"
     inkscape:window-y="30"
     inkscape:window-maximized="1"
     inkscape:current-layer="svg2"
     fit-margin-top="0"
     fit-margin-left="0"
     fit-margin-right="0"
     fit-margin-bottom="0" />
  <path
     id="path4142"
     style="fill:#03A9F4"
     d="m 8.604228440844963e-16,14 0,28 C 8.604228440844963e-16,44.21 1.79,46 4.000000000000002,46 L 32,46 32,42 4,42 4,14 0,14 Z M 22,2 18.34,6 12,6 C 9.789999999999999,6 8,7.79 8,10 l 0,24 c 0,2.21 1.789999999999999,4 4,4 l 32,0 c 2.21,0 4,-1.79 4,-4 L 48,10 C 48,7.79 46.21,6 44,6 L 37.66,6 34,2 22,2 Z m 6,30 c -5.52,0 -10,-4.48000000000001 -10,-10 0,-5.52 4.48,-10 10,-10 5.52,0 10,4.48 10,10 0,5.51999999999999 -4.48,10 -10,10 z M 34.40000009536743,22 A 6.400000095367431,6.400000095367431 0 0 1 28,28.40000009536743 6.400000095367431,6.400000095367431 0 0 1 21.59999990463257,22 6.400000095367431,6.400000095367431 0 0 1 28,15.59999990463257 6.400000095367431,6.400000095367431 0 0 1 34.40000009536743,22 Z"
     inkscape:connector-curvature="0" />
</svg>

<svg xmlns="http://www.w3.org/2000/svg" viewBox="0 0 48 48" fill="#03A9F4"><path d="m0 14v28c0 2.21 1.79 4 4 4h28v-4h-28v-28h-4m22-12l-3.66 4h-6.34c-2.21 0-4 1.79-4 4v24c0 2.21 1.79 4 4 4h32c2.21 0 4-1.79 4-4v-24c0-2.21-1.79-4-4-4h-6.34l-3.66-4h-12m6 30c-5.52 0-10-4.48-10-10 0-5.52 4.48-10 10-10 5.52 0 10 4.48 10 10 0 5.52-4.48 10-10 10zm6.4-10a6.4 6.4 0 0 1 -6.4 6.4 6.4 6.4 0 0 1 -6.4 -6.4 6.4 6.4 0 0 1 6.4 -6.4 6.4 6.4 0 0 1 6.4 6.4"/></svg>
